X:49
T:Huzzar. Ru2.049, The
%%VWML:RutherfordVol2-2249-p25-0
F:http://www.vwml.org/record/RutherfordVol2/2249/p25
L:1/8
B:RUTHERFORD Complete Collection of 200 Country Dances Vol.2; 1759.
Z:vmp. Peter Dunk 2015
Q:3/8=100
K:G
G2g f2e|d3G3|A2A A2B|A2d AFD|E2G D2G|
E2G D2b|a2g def|g3g3::B2G BcB|A3D3|
G2A B2G|BcB ABc|d2D d2D|d3g3|dcB AGF|G3G3:|
W:
W:Hey contrary sides .| then on your own :| cross over 2 Cu: lead to
W:the top & cast off :||: foot it and hands round 4 with the 3d Cu: .||
W:lead to the top and cast off :||Hands round 4 with the 2d Cu: .||
W:lead thro the 3d Cu: & cast up into the 2d Cu: place :|
T:Lady Bell's Jigg. Ru2.050
M:6/8
L:1/8
R:Jigg
B:RUTHERFORD Complete Collection of 200 Country Dances Vol.2; 1759.
Z:vmp. Peter Dunk 2015
Q:3/8=100
K:A
eae eae|faf e3|def edc|BcA GFE|eae eae|
faf edc|def edc|BAG A3::BcB BGE|Bcd c3|
efe ecA|ef=g f2^g|agf edc|def e2g|agf edc|BAG A3:|
W:
W:First & 2d Cu: foot it & right hands across .| foot it & left back again:|
W:Gallop down one Cu: up again & cast off .|. right and left at top :|
